src/icons/typescript.svg

<?xml version="1.0" encoding="UTF-8" standalone="no"?>
<svg
   xmlns:dc="http://purl.org/dc/elements/1.1/"
   xmlns:cc="http://creativecommons.org/ns#"
   xmlns:rdf="http://www.w3.org/1999/02/22-rdf-syntax-ns#"
   xmlns:svg="http://www.w3.org/2000/svg"
   xmlns="http://www.w3.org/2000/svg"
   xmlns:sodipodi="http://sodipodi.sourceforge.net/DTD/sodipodi-0.dtd"
   xmlns:inkscape="http://www.inkscape.org/namespaces/inkscape"
   viewBox="0 0 500 500"
   fill-rule="evenodd"
   clip-rule="evenodd"
   stroke-linejoin="round"
   stroke-miterlimit="1.414"
   id="svg2"
   version="1.1"
   inkscape:version="0.91 r13725"
   sodipodi:docname="typescript.svg">
  <metadata
     id="metadata10">
    <rdf:RDF>
      <cc:Work
         rdf:about="">
        <dc:format>image/svg+xml</dc:format>
        <dc:type
           rdf:resource="http://purl.org/dc/dcmitype/StillImage" />
      </cc:Work>
    </rdf:RDF>
  </metadata>
  <defs
     id="defs8" />
  <sodipodi:namedview
     pagecolor="#ffffff"
     bordercolor="#666666"
     borderopacity="1"
     objecttolerance="10"
     gridtolerance="10"
     guidetolerance="10"
     inkscape:pageopacity="0"
     inkscape:pageshadow="2"
     inkscape:window-width="1366"
     inkscape:window-height="705"
     id="namedview6"
     showgrid="false"
     inkscape:zoom="0.472"
     inkscape:cx="-106.99153"
     inkscape:cy="250"
     inkscape:window-x="-8"
     inkscape:window-y="-8"
     inkscape:window-maximized="1"
     inkscape:current-layer="svg2" />
  <path
     d="M49 51h408v408H49V51zm246.669 314.879l19.463-1.702c.922 7.8 3.067 14.199 6.435 19.198 3.368 4.998 8.597 9.04 15.688 12.124 7.09 3.085 15.067 4.627 23.93 4.627 7.87 0 14.819-1.17 20.845-3.51 6.027-2.34 10.512-5.548 13.455-9.625 2.942-4.077 4.413-8.526 4.413-13.348 0-4.892-1.418-9.164-4.254-12.816-2.836-3.651-7.516-6.718-14.039-9.2-4.183-1.63-13.436-4.165-27.759-7.604s-24.355-6.683-30.099-9.732c-7.445-3.899-12.993-8.739-16.644-14.517-3.652-5.779-5.478-12.249-5.478-19.41 0-7.871 2.234-15.227 6.701-22.069 4.467-6.842 10.99-12.036 19.569-15.581 8.58-3.546 18.116-5.318 28.61-5.318 11.557 0 21.75 1.861 30.577 5.584 8.828 3.722 15.617 9.199 20.368 16.432 4.75 7.232 7.303 15.421 7.657 24.568l-19.782 1.489c-1.064-9.856-4.662-17.301-10.795-22.335-6.133-5.034-15.191-7.551-27.174-7.551-12.479 0-21.573 2.286-27.281 6.86-5.707 4.573-8.561 10.086-8.561 16.538 0 5.602 2.021 10.21 6.062 13.826 3.971 3.617 14.34 7.321 31.109 11.115 16.769 3.793 28.273 7.108 34.513 9.944 9.076 4.183 15.776 9.483 20.101 15.9 4.325 6.417 6.488 13.809 6.488 22.175 0 8.296-2.375 16.113-7.126 23.452-4.751 7.338-11.575 13.046-20.474 17.123-8.898 4.077-18.913 6.116-30.045 6.116-14.11 0-25.933-2.056-35.47-6.169-9.537-4.112-17.017-10.299-22.441-18.559-5.424-8.26-8.278-17.602-8.562-28.025zm-65.728 50.094V278.454h51.583v-18.399H157.938v18.399h51.37v137.519h20.633z"
     fill="#42a5f5"
     id="path4"
     style="fill:#0085c1;fill-opacity:1" />
</svg>

<?xml version="1.0" standalone="no"?>
<!DOCTYPE svg PUBLIC "-//W3C//DTD SVG 1.1//EN" "http://www.w3.org/Graphics/SVG/1.1/DTD/svg11.dtd">
<svg width="100%" height="100%" viewBox="0 0 500 500" version="1.1" xmlns="http://www.w3.org/2000/svg" xmlns:xlink="http://www.w3.org/1999/xlink" xml:space="preserve" style="fill-rule:evenodd;clip-rule:evenodd;stroke-linejoin:round;stroke-miterlimit:1.41421;">
    <g>
        <path d="M49,51L457,51L457,459L49,459L49,51ZM295.669,365.879L315.132,364.177C316.054,371.977 318.199,378.376 321.567,383.375C324.935,388.373 330.164,392.415 337.255,395.499C344.345,398.584 352.322,400.126 361.185,400.126C369.055,400.126 376.004,398.956 382.03,396.616C388.057,394.276 392.542,391.068 395.485,386.991C398.427,382.914 399.898,378.465 399.898,373.643C399.898,368.751 398.48,364.479 395.644,360.827C392.808,357.176 388.128,354.109 381.605,351.627C377.422,349.997 368.169,347.462 353.846,344.023C339.523,340.584 329.491,337.34 323.747,334.291C316.302,330.392 310.754,325.552 307.103,319.774C303.451,313.995 301.625,307.525 301.625,300.364C301.625,292.493 303.859,285.137 308.326,278.295C312.793,271.453 319.316,266.259 327.895,262.714C336.475,259.168 346.011,257.396 356.505,257.396C368.062,257.396 378.255,259.257 387.082,262.98C395.91,266.702 402.699,272.179 407.45,279.412C412.2,286.644 414.753,294.833 415.107,303.98L395.325,305.469C394.261,295.613 390.663,288.168 384.53,283.134C378.397,278.1 369.339,275.583 357.356,275.583C344.877,275.583 335.783,277.869 330.075,282.443C324.368,287.016 321.514,292.529 321.514,298.981C321.514,304.583 323.535,309.191 327.576,312.807C331.547,316.424 341.916,320.128 358.685,323.922C375.454,327.715 386.958,331.03 393.198,333.866C402.274,338.049 408.974,343.349 413.299,349.766C417.624,356.183 419.787,363.575 419.787,371.941C419.787,380.237 417.412,388.054 412.661,395.393C407.91,402.731 401.086,408.439 392.187,412.516C383.289,416.593 373.274,418.632 362.142,418.632C348.032,418.632 336.209,416.576 326.672,412.463C317.135,408.351 309.655,402.164 304.231,393.904C298.807,385.644 295.953,376.302 295.669,365.879ZM229.941,415.973L229.941,278.454L281.524,278.454L281.524,260.055L157.938,260.055L157.938,278.454L209.308,278.454L209.308,415.973L229.941,415.973Z" style="fill:rgb(66,165,245);"/>
    </g>
</svg>
